SVG/122-stage-advocateconf.svg

<?xml version="1.0" encoding="UTF-8" standalone="no"?>
<svg width="15px" height="14px" viewBox="0 0 15 14" version="1.1" xmlns="http://www.w3.org/2000/svg" xmlns:xlink="http://www.w3.org/1999/xlink">
    <!-- Generator: Sketch 3.8.2 (29753) - http://www.bohemiancoding.com/sketch -->
    <title>122-stage-advocateconf</title>
    <desc>Created with Sketch.</desc>
    <defs></defs>
    <g id="Page-1" stroke="none" stroke-width="1" fill="none" fill-rule="evenodd">
        <g id="122-stage-advocateconf" fill="#000000">
            <g id="Layer_2">
                <g id="Icons">
                    <path d="M6.9,8.38 C8.39931943,8.35893698 9.85562695,8.88107651 11,9.85 L11.64,9.21 C10.7055888,8.38706567 9.56482022,7.83396576 8.34,7.61 L8.17,7.61 L8.34,7.54 C10.0744473,6.87050432 11.0852157,5.05972745 10.7447082,3.2320003 C10.4042007,1.40427315 8.80917506,0.078958484 6.95,0.078958484 C5.09082494,0.078958484 3.49579935,1.40427315 3.15529183,3.2320003 C2.81478431,5.05972745 3.8255527,6.87050432 5.56,7.54 L5.72,7.61 L5.55,7.61 C2.44241958,8.09620734 0.115394262,10.7167314 -7.29416527e-16,13.86 L8.44,13.86 L7.54,12.96 L1,12.96 L1,12.9 C1.64437717,10.1838242 4.1097262,8.29511608 6.9,8.38 L6.9,8.38 Z M3.9,3.89 C3.9,2.23314575 5.24314575,0.89 6.9,0.89 C8.55685425,0.89 9.9,2.23314575 9.9,3.89 C9.9,5.54685425 8.55685425,6.89 6.9,6.89 C5.25878774,6.86811523 3.9398541,5.53135815 3.94,3.89 L3.9,3.89 Z M13.32,11.68 L12.62,12.38 C12.62,12.55 12.71,12.72 12.75,12.9 L12.75,13 L12.03,13 L11.13,13.9 L13.74,13.9 C13.7546053,13.1426472 13.6256673,12.3893782 13.36,11.68 L13.32,11.68 Z M13.87,9.68 L9.77,13.78 L9,13 L7.7,11.71 C7.50393892,11.5139389 7.50393892,11.1960611 7.70000001,11 C7.89606109,10.8039389 8.21393891,10.8039389 8.41,11 L9.81,12.4 L11.65,10.55 L13.2,9 C13.3978137,8.80821671 13.7121863,8.80821671 13.91,9 C14.0046563,9.0938833 14.0578992,9.22168123 14.0578992,9.355 C14.0578992,9.48831877 14.0046563,9.6161167 13.91,9.71 L13.87,9.68 Z" id="Shape"></path>
                </g>
            </g>
        </g>
    </g>
</svg>

<svg xmlns="http://www.w3.org/2000/svg" viewBox="0 0 14.06 13.86"><title>Asset 10</title><g id="Layer_2" data-name="Layer 2"><g id="Icons"><path d="M6.9,8.38A6.21,6.21,0,0,1,11,9.85l.64-.64a6.86,6.86,0,0,0-3.3-1.6l-.17,0,.17-.07a3.86,3.86,0,1,0-2.78,0l.16.07-.17,0A6.57,6.57,0,0,0,0,13.86H8.44l-.9-.9H1V12.9A5.88,5.88,0,0,1,6.9,8.38Zm-3-4.49a3,3,0,1,1,3,3A3,3,0,0,1,3.94,3.89Zm9.42,7.79-.7.7c0,.17.09.34.13.52V13h-.72l-.9.9h2.61A6,6,0,0,0,13.36,11.68Zm.55-2-4.1,4.1L9,13,7.7,11.71A.5.5,0,0,1,8.41,11l1.4,1.4,1.84-1.85L13.2,9a.51.51,0,0,1,.71,0A.5.5,0,0,1,13.91,9.71Z"/></g></g></svg>
